public/images/icons/24x24/message_caution_24_white.svg

<svg height="24" viewBox="0 0 24 24" width="24" xmlns="http://www.w3.org/2000/svg"><g fill="none" fill-rule="evenodd" transform="translate(1 1)"><path d="m12.2558333 15.7025c0 .5079372-.3059739.9658596-.7752467 1.1602387-.4692727.1943792-1.009429.0869354-1.3685949-.2722304-.35916578-.3591659-.46660955-.8993222-.27223041-1.3685949.19437911-.4692728.65230151-.7752467 1.16023871-.7752467.6935776 0 1.2558333.5622557 1.2558333 1.2558333zm-1.2558333-2.475c-.506261 0-.9166667-.4104056-.9166667-.9166667l-.14666663-6.13249997c-.02642446-.5891706.42021493-1.09265502 1.00833333-1.13666666.2917381 0 .5715274.11589252.7778175.32218254.20629.20629001.3221825.48607932.3221825.77781746l-.1283333 6.16000003c.0024471.2446994-.0930486.480219-.2652229.6541151-.1721743.173896-.4067321.2717182-.6514438.2717182z" fill="#fff"/><circle cx="11" cy="11" r="11" stroke="#fff" stroke-linecap="round" stroke-linejoin="round" stroke-width="1.5"/></g></svg>

<svg xmlns="http://www.w3.org/2000/svg" width="24" height="24" viewBox="0 0 24 24">
  <g fill="none" fill-rule="evenodd" transform="translate(1 1)">
    <path fill="#FFF" d="M12.2558333,15.7025 C12.2558333,16.2104372 11.9498594,16.6683596 11.4805866,16.8627387 C11.0113139,17.0571179 10.4711576,16.9496741 10.1119917,16.5905083 C9.75282592,16.2313424 9.64538215,15.6911861 9.83976129,15.2219134 C10.0341404,14.7526406 10.4920628,14.4466667 11,14.4466667 C11.6935776,14.4466667 12.2558333,15.0089224 12.2558333,15.7025 Z M11,13.2275 L11,13.2275 C10.493739,13.2275 10.0833333,12.8170944 10.0833333,12.3108333 L9.93666667,6.17833333 C9.91024221,5.58916273 10.3568816,5.08567831 10.945,5.04166667 L10.945,5.04166667 C11.2367381,5.04166667 11.5165274,5.15755919 11.7228175,5.36384921 C11.9291075,5.57013922 12.045,5.84992853 12.045,6.14166667 L12.045,6.14166667 L11.9166667,12.3016667 C11.9191138,12.5463661 11.8236181,12.7818857 11.6514438,12.9557818 C11.4792695,13.1296778 11.2447117,13.2275 11,13.2275 Z"/>
    <circle cx="11" cy="11" r="11" stroke="#FFF" stroke-linecap="round" stroke-linejoin="round" stroke-width="1.5"/>
  </g>
</svg>
